melody-of-light/img/icons/icomoon/catalog.svg

<svg width="17" height="16" viewBox="0 0 17 16" fill="none" xmlns="http://www.w3.org/2000/svg">
<g clip-path="url(#clip0)">
<path d="M0.5 1C0.5 0.447715 0.947715 0 1.5 0H6.5C7.05228 0 7.5 0.447715 7.5 1V6C7.5 6.55228 7.05228 7 6.5 7H1.5C0.947715 7 0.5 6.55228 0.5 6V1Z" fill="white"/>
<path d="M0.5 10C0.5 9.44772 0.947715 9 1.5 9H6.5C7.05228 9 7.5 9.44772 7.5 10V15C7.5 15.5523 7.05228 16 6.5 16H1.5C0.947715 16 0.5 15.5523 0.5 15V10Z" fill="white"/>
<rect x="9.5" width="7" height="7" rx="1" fill="white"/>
<rect x="9.5" y="9" width="7" height="7" rx="1" fill="white"/>
</g>
<defs>
<clipPath id="clip0">
<rect width="16" height="16" fill="white" transform="translate(0.5)"/>
</clipPath>
</defs>
</svg>

<svg width="17" height="16" fill="none" xmlns="http://www.w3.org/2000/svg"><g clip-path="url(#clip0)" fill="#fff"><path d="M.5 1a1 1 0 011-1h5a1 1 0 011 1v5a1 1 0 01-1 1h-5a1 1 0 01-1-1V1zm0 9a1 1 0 011-1h5a1 1 0 011 1v5a1 1 0 01-1 1h-5a1 1 0 01-1-1v-5z"/><rect x="9.5" width="7" height="7" rx="1"/><rect x="9.5" y="9" width="7" height="7" rx="1"/></g><defs><clipPath id="clip0"><path fill="#fff" transform="translate(.5)" d="M0 0h16v16H0z"/></clipPath></defs></svg>
